X: 1458
T: Nev`eser Seyir
C: Erol Bingöl
O: Turkey
F: http://compmusic.upf.edu/node/140
N: neveser--seyir--senginsemai--1--erol_bingol
N: makam= neveser
N: form= seyir
N: usul= senginsemai = 6/4
M: 6/4
L: 1/16
K: C _7/8B _7/8e ^f ^c
Q: 1/4=60
%%MIDI tuningsystem comma53
C4 d4 d4 d4 d8  | e4 d2c2 d4 c2B2 c4 B2A2  | \
w:   |   | 
B2c2 d2e2 f2g2 a2g2 f2e2 e2d2  | 
w:   | 
d8 d3c B2c2 d8  | c4 d4 e4 d2c2 B8  | \
w:   |   | 
A4 B4 d2^3/4c2 B2A2 G8  | A2B2 A2B2 c4 B2A2 B2A2 G2F2  | 
w:   |   | 
G4 G4 G4 G4 z4 z4  | |


